!!!COM: Palestrina, Giovanni Perluigi da
!!!OPR: Missa In festis Apostolorum (I)
!!!OMD: Gloria
!!!OTL: Glorificamus te
**kern	**kern	**kern	**kern	**kern
*Ibass	*Itenor	*Itenor	*Icalto	*Icant
!Bassus	!Tenor 2	!Tenor 1	!Altus	!Cantus
*clefF4	*clefGv2	*clefGv2	*clefG2	*clefG2
*k[]	*k[]	*k[]	*k[]	*k[]
*D:dor	*D:dor	*D:dor	*D:dor	*D:dor
*M4/2	*M4/2	*M4/2	*M4/2	*M4/2
=25	=25	=25	=25	=25
0r	0r	0r	2r	1a
.	.	.	1d	.
.	.	.	.	2b
.	.	.	2e	2cc
=26	=26	=26	=26	=26
0r	0r	0r	2f	2.dd
.	.	.	2.g	.
.	.	.	.	4cc
.	.	.	.	4b
.	.	.	4f	4a
.	.	.	4e	4g
.	.	.	4d	4f
=27	=27	=27	=27	=27
0r	0r	1A	4c	2.e
.	.	.	4d	.
.	.	.	4e	.
.	.	.	4c	4f
.	.	2B	2d	2g
.	.	2c	2A	[2a
=28	=28	=28	=28	=28
0r	0r	1.d	1B	2a]
.	.	.	.	2g
.	.	.	2A	2f
.	.	2c	2a	2e
=29	=29	=29	=29	=29
2r	0r	2B	2g	1d
2D	.	2A	2f	.
2E	.	2G	2e	2r
2F	.	2F	[2d	2a
=30	=30	=30	=30	=30
1.G	1r	1E	2d]	2b
.	.	.	2c	2cc
.	2r	1D	2B	[1dd
2F	2A	.	2A	.
=31	=31	=31	=31	=31
1E	2B	2G	2e	2dd]
.	2c	4G	1g	2cc
.	.	4A	.	.
1D	2.d	4B	.	2b
.	.	4c	.	.
.	.	[2d	2f	2a
.	4c	.	.	.
=32	=32	=32	=32	=32
0E	2B	2d]	1e	2g#
.	2A	2c	.	1a
.	1B	2B	1e	.
.	.	2E	.	2g#
=33	=33	=33	=33	=33
[0AA	[0A	[0E	[0c#	[0a
=34	=34	=34	=34	=34
0AA]	0A]	0E]	0c#]	0a]
*-	*-	*-	*-	*-
!!!CDT: 1525/^1526/-1594/2/2
!!!OCY: Italia
!!!AGN: Mass (Paraphrase)
!!!AST: renaissance, vocal
!!!ASW: Gregorian Mass
!!!PWK: Masses, Book Mantuan II
!!!RNB: Cadence finals: A,E
!!!YOR: Le Opere Complete, v. 19, p. 43
!!!YOO: Rome, Italy: Fratelli Scalera
!!!END: 1992//
!!!EED: John Miller
!!!YEC: Copyright 2000, John Miller
!!!YEN: United States of America
!!!YEM: Rights to all derivative electronic formats reserved.
!!!YEM: Refer to licensing agreement for further details.
!!!YEM: This file must be accompanied by the licensing agreement.
!!!YEM: A copy of the licensing agreement may be found at http://www.music-cog.ohio-state.edu/HumdrumDatabases/Palestrina/license.txt
!!!EMD: converted to Humdrum by Bret Aarden
